X: 22845
T: Lark In The Morning, The
R: jig
M: 6/8
K: Dmajor
AAA DDD|DEF A2d|BGG dGG|BBB BdB|
AAA DDD|DEF A2c|def gfe|fd^c dcB:|
|:ABd fdd|add fdB|Add fed|edB BAF|
Add fdd|add fdd|faf gfd|ed^c d2B:|

